X: 27
T: Red Parrot, Green Parrot (upper teacher part)
C: Edward Huws Jones
M: 4/4
K: D
L: 1/8
Q: 1/4 = 116
 !mf!d4 A2 (dA) | e4 e2 e2 | (A2 dA) A2 A2 | E4 z4 | F4 F2 (FD) |
B4 B2 B2 | (A2 d) z E3 z | D4 !fine!z4 |] !f!ve4 e2 (ef) | e2 z2 "_free gliss. (sul E)"(f2{a'}) z2 | !p!vE4 E2 (EF) |
E2 z2 ({A}B,2) z2 | !f!a4 a2 a2 | d4 A4 | !>(!G2 G2 F2 !>)!G2 | D4 z4 || d4 A2 (dA) | e4 e2 e2 |
(A2 dA) A2 A2 | E4 z4 | F4 F2 (FD) | B4 B2 B2 | (A2 d) z E3 z | D4 z4 |
!f!ve4 e2 (ef) | e2 z2 z4 | !p!vE4 E2 (EF) | e2 z2 z4 | !f!va4 a2 a2 | d4 A4 | !>(!G2 G2 F2 !>)!G2 | D4 !D.C.!z4 |
